;FLAVOR:Marlin
;TIME:15959
;Filament used: 13.7737m
;Layer height: 0.2
;Generated with Cura_SteamEngine 1.1.0
M190 S35
M104 S235
M109 S235
G28
G1 Z50.00 F400
G92 E0
G1 F200 E3
G92 E0
M132 X Y Z A
M907 X100 Y100 Z50 A100
;LAYER_COUNT:386
;LAYER:0
M107
G0 F4000 X-.735 Y-.774 Z0.3
;TYPE:SKIRT
G1 F1500 X-55.855 Y-.774 E2.74995
G1 X-55.855 Y19.043 E3.73862
G1 X-55.895 Y19.832 E3.77804
G1 X-56.014 Y20.612 E3.8174
G1 X-56.212 Y21.377 E3.85682
G1 X-56.486 Y22.117 E3.89619
G1 X-56.834 Y22.826 E3.9356
G1 X-57.252 Y23.497 E3.97504
G1 X-57.735 Y24.121 E4.0144
G1 X-58.14 Y24.558 E4.04413
G1 X-58.403 Y24.821 E4.06269
G1 X-58.989 Y25.351 E4.10211
G1 X-59.625 Y25.818 E4.14147
G1 X-60.305 Y26.219 E4.18086
G1 X-61.023 Y26.549 E4.22028
G1 X-61.77 Y26.804 E4.25966
G1 X-62.539 Y26.983 E4.29905
G1 X-63.323 Y27.083 E4.33848
G1 X-63.916 Y27.106 E4.36809
G1 X-68.899 Y27.107 E4.61669
G1 X-69.688 Y27.067 E4.6561
G1 X-70.469 Y26.948 E4.69552
G1 X-71.233 Y26.75 E4.73489
G1 X-71.974 Y26.476 E4.77431
G1 X-72.683 Y26.129 E4.81369
G1 X-73.353 Y25.711 E4.85309
G1 X-73.978 Y25.228 E4.8925
G1 X-74.416 Y24.822 E4.92229
G1 X-74.65 Y24.588 E4.9388
G1 X-75.18 Y24.002 E4.97822
G1 X-75.647 Y23.366 E5.01759
G1 X-76.048 Y22.686 E5.05697
G1 X-76.378 Y21.968 E5.09639
G1 X-76.633 Y21.221 E5.13577
G1 X-76.812 Y20.452 E5.17517
G1 X-76.912 Y19.668 E5.2146
G1 X-76.935 Y19.073 E5.2443
G1 X-76.935 Y-3.2 E6.35551
G1 X-76.895 Y-3.989 E6.39492
G1 X-76.776 Y-4.769 E6.43429
G1 X-76.689 Y-5.107 E6.4517
G1 X-76.812 Y-5.637 E6.47884
G1 X-76.912 Y-6.421 E6.51827
G1 X-76.935 Y-7.016 E6.54798
G1 X-76.935 Y-7.581 E6.57617
G1 X-76.895 Y-8.37 E6.61558
G1 X-76.776 Y-9.15 E6.65495
G1 X-76.735 Y-9.308 E6.66309
G1 X-76.735 Y-10.381 E6.71662
G1 X-76.695 Y-11.17 E6.75604
G1 X-76.576 Y-11.95 E6.7954
G1 X-76.378 Y-12.715 E6.83483
G1 X-76.104 Y-13.455 E6.87419
G1 X-75.756 Y-14.164 E6.9136
G1 X-75.691 Y-14.268 E6.91972
G1 X-75.74 Y-14.338 E6.92398
G1 X-76.126 Y-15.027 E6.96338
G1 X-76.44 Y-15.752 E7.0028
G1 X-76.679 Y-16.504 E7.04216
G1 X-76.841 Y-17.277 E7.08157
G1 X-76.923 Y-18.063 E7.12099
G1 X-76.935 Y-18.487 E7.14215
G1 X-76.935 Y-22.624 E7.34855
G1 X-76.895 Y-23.413 E7.38796
G1 X-76.776 Y-24.193 E7.42733
G1 X-76.578 Y-24.958 E7.46675
G1 X-76.304 Y-25.698 E7.50612
G1 X-75.956 Y-26.407 E7.54552
G1 X-75.538 Y-27.078 E7.58497
G1 X-75.055 Y-27.702 E7.62433
G1 X-74.65 Y-28.139 E7.65406
G1 X-74.373 Y-28.416 E7.6736
G1 X-73.787 Y-28.946 E7.71302
G1 X-73.151 Y-29.413 E7.75239
G1 X-72.471 Y-29.814 E7.79177
G1 X-71.753 Y-30.144 E7.8312
G1 X-71.006 Y-30.399 E7.87057
G1 X-70.237 Y-30.578 E7.90997
G1 X-69.453 Y-30.678 E7.9494
G1 X-68.86 Y-30.701 E7.979
G1 X-63.891 Y-30.702 E8.22691
G1 X-63.102 Y-30.662 E8.26632
G1 X-62.321 Y-30.543 E8.30574
G1 X-61.557 Y-30.345 E8.34511
G1 X-60.816 Y-30.071 E8.38453
G1 X-60.107 Y-29.724 E8.42391
G1 X-59.437 Y-29.306 E8.46331
G1 X-58.812 Y-28.823 E8.50271
G1 X-58.374 Y-28.417 E8.53251
G1 X-58.14 Y-28.183 E8.54902
G1 X-57.61 Y-27.597 E8.58844
G1 X-57.143 Y-26.961 E8.6278
G1 X-56.742 Y-26.281 E8.66719
G1 X-56.412 Y-25.563 E8.70661
G1 X-56.157 Y-24.816 E8.74599
G1 X-55.978 Y-24.047 E8.78538
G1 X-55.878 Y-23.263 E8.82481
G1 X-55.855 Y-22.668 E8.85452
G1 X-55.855 Y-18.503 E9.06231
G1 X-55.865 Y-18.297 E9.0726
G1 X-.73 Y-18.297 E11.8233
G1 X-.735 Y-18.495 E11.83318
G1 X-.735 Y-22.624 E12.03918
G1 X-.695 Y-23.413 E12.07859
G1 X-.576 Y-24.193 E12.11796
G1 X-.378 Y-24.958 E12.15738
G1 X-.104 Y-25.698 E12.19675
G1 X0.244 Y-26.407 E12.23615
G1 X0.662 Y-27.078 E12.27559
G1 X1.145 Y-27.702 E12.31496
G1 X1.55 Y-28.139 E12.34469
G1 X1.827 Y-28.416 E12.36423
G1 X2.413 Y-28.946 E12.40365
G1 X3.049 Y-29.413 E12.44301
G1 X3.729 Y-29.814 E12.4824
G1 X4.447 Y-30.144 E12.52182
G1 X5.194 Y-30.399 E12.5612
G1 X5.963 Y-30.578 E12.60059
G1 X6.747 Y-30.678 E12.64002
G1 X7.34 Y-30.701 E12.66963
G1 X12.309 Y-30.702 E12.91754
G1 X13.098 Y-30.662 E12.95695
G1 X13.879 Y-30.543 E12.99636
G1 X14.643 Y-30.345 E13.03574
G1 X15.384 Y-30.071 E13.07515
G1 X16.093 Y-29.724 E13.11454
G1 X16.763 Y-29.306 E13.15393
G1 X17.388 Y-28.823 E13.19334
G1 X17.826 Y-28.417 E13.22314
G1 X18.06 Y-28.183 E13.23965
G1 X18.59 Y-27.597 E13.27907
G1 X19.057 Y-26.961 E13.31843
G1 X19.458 Y-26.281 E13.35782
G1 X19.788 Y-25.563 E13.39724
G1 X20.043 Y-24.816 E13.43662
G1 X20.222 Y-24.047 E13.47601
G1 X20.322 Y-23.263 E13.51544
G1 X20.345 Y-22.668 E13.54515
G1 X20.345 Y-18.494 E13.75339
G1 X20.335 Y-18.297 E13.76323
G1 X75.48 Y-18.297 E16.51443
G1 X75.465 Y-18.502 E16.52468
G1 X75.465 Y-22.624 E16.73033
G1 X75.505 Y-23.413 E16.76974
G1 X75.624 Y-24.193 E16.80911
G1 X75.822 Y-24.958 E16.84853
G1 X76.096 Y-25.698 E16.8879
G1 X76.444 Y-26.407 E16.9273
G1 X76.862 Y-27.078 E16.96674
G1 X77.345 Y-27.702 E17.00611
G1 X77.75 Y-28.139 E17.03584
G1 X78.027 Y-28.416 E17.05538
G1 X78.613 Y-28.946 E17.0948
G1 X79.249 Y-29.413 E17.13416
G1 X79.929 Y-29.814 E17.17355
G1 X80.647 Y-30.144 E17.21297
G1 X81.394 Y-30.399 E17.25235
G1 X82.163 Y-30.578 E17.29174
G1 X82.947 Y-30.678 E17.33117
G1 X83.54 Y-30.701 E17.36078
G1 X88.509 Y-30.702 E17.60869
G1 X89.298 Y-30.662 E17.6481
G1 X90.079 Y-30.543 E17.68751
G1 X90.843 Y-30.345 E17.72689
G1 X91.584 Y-30.071 E17.7663
G1 X92.293 Y-29.724 E17.80569
G1 X92.963 Y-29.306 E17.84508
G1 X93.588 Y-28.823 E17.88449
G1 X94.026 Y-28.417 E17.91429
G1 X94.26 Y-28.183 E17.9308
G1 X94.79 Y-27.597 E17.97022
G1 X95.257 Y-26.961 E18.00958
G1 X95.658 Y-26.281 E18.04897
G1 X95.988 Y-25.563 E18.08839
G1 X96.243 Y-24.816 E18.12777
G1 X96.422 Y-24.047 E18.16716
G1 X96.522 Y-23.263 E18.20659
G1 X96.545 Y-22.668 E18.2363
G1 X96.545 Y-18.485 E18.44499
G1 X96.505 Y-17.696 E18.4844
G1 X96.386 Y-16.916 E18.52377
G1 X96.188 Y-16.151 E18.56319
G1 X95.914 Y-15.411 E18.60256
G1 X95.839 Y-15.259 E18.61102
G1 X95.997 Y-14.913 E18.62999
G1 X96.251 Y-14.165 E18.6694
G1 X96.427 Y-13.395 E18.70881
G1 X96.524 Y-12.611 E18.74822
G1 X96.545 Y-12.042 E18.77663
G1 X96.545 Y-11.49 E18.80417
G1 X96.505 Y-10.701 E18.84358
G1 X96.386 Y-9.921 E18.88295
G1 X96.345 Y-9.763 E18.89109
G1 X96.345 Y-9.297 E18.91434
G1 X96.452 Y-8.783 E18.94053
G1 X96.534 Y-7.998 E18.97991
G1 X96.545 Y-7.582 E19.00067
G1 X96.545 Y-7.017 E19.02886
G1 X96.505 Y-6.228 E19.06827
G1 X96.386 Y-5.448 E19.10764
G1 X96.299 Y-5.11 E19.12505
G1 X96.422 Y-4.58 E19.15219
G1 X96.522 Y-3.796 E19.19163
G1 X96.545 Y-3.201 E19.22133
G1 X96.545 Y19.043 E20.33109
G1 X96.505 Y19.832 E20.3705
G1 X96.386 Y20.612 E20.40987
G1 X96.188 Y21.377 E20.44929
G1 X95.914 Y22.117 E20.48866
G1 X95.566 Y22.826 E20.52806
G1 X95.148 Y23.497 E20.5675
G1 X94.665 Y24.121 E20.60687
G1 X94.26 Y24.558 E20.6366
G1 X93.997 Y24.821 E20.65515
G1 X93.411 Y25.351 E20.69457
G1 X92.775 Y25.818 E20.73394
G1 X92.095 Y26.219 E20.77332
G1 X91.377 Y26.549 E20.81275
G1 X90.63 Y26.804 E20.85213
G1 X89.861 Y26.983 E20.89152
G1 X89.077 Y27.083 E20.93095
G1 X88.484 Y27.106 E20.96056
G1 X83.501 Y27.107 E21.20916
G1 X82.712 Y27.067 E21.24857
G1 X81.931 Y26.948 E21.28799
G1 X81.167 Y26.75 E21.32736
G1 X80.426 Y26.476 E21.36678
G1 X79.717 Y26.129 E21.40616
G1 X79.047 Y25.711 E21.44556
G1 X78.422 Y25.228 E21.48496
G1 X77.984 Y24.822 E21.51476
G1 X77.75 Y24.588 E21.53127
G1 X77.22 Y24.002 E21.57069
G1 X76.753 Y23.366 E21.61005
G1 X76.352 Y22.686 E21.64944
G1 X76.022 Y21.968 E21.68886
G1 X75.767 Y21.221 E21.72824
G1 X75.588 Y20.452 E21.76763
G1 X75.488 Y19.668 E21.80706
G1 X75.465 Y19.073 E21.83677
G1 X75.465 Y-.775 E22.82699
G1 X20.345 Y-.775 E25.57694
G1 X20.345 Y19.043 E26.56566
G1 X20.305 Y19.832 E26.60508
G1 X20.186 Y20.612 E26.64444
G1 X19.988 Y21.377 E26.68387
G1 X19.714 Y22.117 E26.72323
G1 X19.366 Y22.826 E26.76264
G1 X18.948 Y23.497 E26.80208
G1 X18.465 Y24.121 E26.84145
G1 X18.06 Y24.558 E26.87117
G1 X17.797 Y24.821 E26.88973
G1 X17.211 Y25.351 E26.92915
G1 X16.575 Y25.818 E26.96851
G1 X15.895 Y26.219 E27.0079
G1 X15.177 Y26.549 E27.04732
G1 X14.43 Y26.804 E27.0867
G1 X13.661 Y26.983 E27.12609
G1 X12.877 Y27.083 E27.16552
G1 X12.284 Y27.106 E27.19513
G1 X7.301 Y27.107 E27.44373
G1 X6.512 Y27.067 E27.48315
G1 X5.731 Y26.948 E27.52256
G1 X4.967 Y26.75 E27.56194
G1 X4.226 Y26.476 E27.60135
G1 X3.517 Y26.129 E27.64073
G1 X2.847 Y25.711 E27.68013
G1 X2.222 Y25.228 E27.71954
G1 X1.784 Y24.822 E27.74933
G1 X1.55 Y24.588 E27.76584
G1 X1.02 Y24.002 E27.80526
G1 X0.553 Y23.366 E27.84463
G1 X0.152 Y22.686 E27.88401
G1 X-.178 Y21.968 E27.92344
G1 X-.433 Y21.221 E27.96282
G1 X-.612 Y20.452 E28.00221
G1 X-.712 Y19.668 E28.04164
G1 X-.735 Y19.073 E28.07134
G1 X-.735 Y-.774 E29.06152
G0 F4000 X-.335 Y-1.174
G1 F1500 X-56.255 Y-1.174 E31.85138
G1 X-56.255 Y19.043 E32.86001
G1 X-56.295 Y19.811 E32.89837
G1 X-56.414 Y20.571 E32.93675
G1 X-56.612 Y21.314 E32.97511
G1 X-56.886 Y22.033 E33.0135
G1 X-57.233 Y22.719 E33.05186
G1 X-57.649 Y23.366 E33.09023
G1 X-58.13 Y23.966 E33.1286
G1 X-58.422 Y24.276 E33.14984
G1 X-58.685 Y24.539 E33.1684
G1 X-59.257 Y25.053 E33.20677
G1 X-59.879 Y25.506 E33.24515
G1 X-60.544 Y25.892 E33.28352
G1 X-61.246 Y26.207 E33.3219
G1 X-61.977 Y26.447 E33.36029
G1 X-62.728 Y26.61 E33.39863
G1 X-63.493 Y26.694 E33.43702
G1 X-63.917 Y26.706 E33.45819
G1 X-68.9 Y26.707 E33.70679
G1 X-69.668 Y26.667 E33.74516
G1 X-70.427 Y26.548 E33.78349
G1 X-71.171 Y26.35 E33.8219
G1 X-71.89 Y26.077 E33.86027
G1 X-72.576 Y25.73 E33.89862
G1 X-73.223 Y25.314 E33.93699
G1 X-73.823 Y24.833 E33.97536
G1 X-74.134 Y24.54 E33.99668
G1 X-74.368 Y24.306 E34.01319
G1 X-74.882 Y23.734 E34.05155
G1 X-75.335 Y23.112 E34.08994
G1 X-75.721 Y22.447 E34.1283
G1 X-76.036 Y21.745 E34.16669
G1 X-76.276 Y21.014 E34.20508
G1 X-76.439 Y20.263 E34.24342
G1 X-76.523 Y19.498 E34.28181
G1 X-76.535 Y19.073 E34.30302
G1 X-76.535 Y-3.2 E35.41423
G1 X-76.495 Y-3.968 E35.4526
G1 X-76.376 Y-4.728 E35.49097
G1 X-76.279 Y-5.091 E35.50972
G1 X-76.439 Y-5.826 E35.54725
G1 X-76.523 Y-6.591 E35.58564
G1 X-76.535 Y-7.016 E35.60685
G1 X-76.535 Y-7.581 E35.63504
G1 X-76.495 Y-8.349 E35.67341
G1 X-76.376 Y-9.109 E35.71179
G1 X-76.335 Y-9.263 E35.71974
G1 X-76.335 Y-10.381 E35.77552
G1 X-76.295 Y-11.149 E35.81388
G1 X-76.176 Y-11.909 E35.85226
G1 X-75.978 Y-12.652 E35.89062
G1 X-75.704 Y-13.371 E35.92901
G1 X-75.357 Y-14.057 E35.96737
G1 X-75.213 Y-14.281 E35.98065
G1 X-75.505 Y-14.722 E36.00704
G1 X-75.862 Y-15.403 E36.0454
G1 X-76.146 Y-16.118 E36.08378
G1 X-76.354 Y-16.858 E36.12213
G1 X-76.484 Y-17.617 E36.16055
G1 X-76.535 Y-18.487 E36.20403
G1 X-76.535 Y-22.624 E36.41042
G1 X-76.495 Y-23.392 E36.44879
G1 X-76.376 Y-24.152 E36.48717
G1 X-76.178 Y-24.895 E36.52553
G1 X-75.904 Y-25.614 E36.56392
G1 X-75.557 Y-26.3 E36.60227
G1 X-75.141 Y-26.947 E36.64065
G1 X-74.66 Y-27.547 E36.67902
G1 X-74.368 Y-27.857 E36.70026
G1 X-74.091 Y-28.134 E36.71981
G1 X-73.519 Y-28.648 E36.75817
G1 X-72.897 Y-29.101 E36.79656
G1 X-72.232 Y-29.487 E36.83492
G1 X-71.53 Y-29.802 E36.87331
G1 X-70.799 Y-30.042 E36.91169
G1 X-70.048 Y-30.205 E36.95003
G1 X-69.283 Y-30.289 E36.98843
G1 X-68.859 Y-30.301 E37.00959
G1 X-63.89 Y-30.302 E37.2575
G1 X-63.122 Y-30.262 E37.29586
G1 X-62.363 Y-30.143 E37.33419
G1 X-61.619 Y-29.945 E37.3726
G1 X-60.9 Y-29.672 E37.41097
G1 X-60.214 Y-29.325 E37.44933
G1 X-59.567 Y-28.909 E37.4877
G1 X-58.967 Y-28.428 E37.52607
G1 X-58.656 Y-28.135 E37.54739
G1 X-58.422 Y-27.901 E37.5639
G1 X-57.908 Y-27.329 E37.60226
G1 X-57.455 Y-26.707 E37.64065
G1 X-57.069 Y-26.042 E37.67901
G1 X-56.754 Y-25.34 E37.7174
G1 X-56.514 Y-24.609 E37.75578
G1 X-56.351 Y-23.858 E37.79412
G1 X-56.267 Y-23.093 E37.83252
G1 X-56.255 Y-22.668 E37.85373
G1 X-56.255 Y-18.503 E38.06152
G1 X-56.287 Y-17.897 E38.0918
G1 X-.3 Y-17.897 E40.885
G1 X-.335 Y-18.495 E40.91489
G1 X-.335 Y-22.624 E41.12088
G1 X-.295 Y-23.392 E41.15925
G1 X-.176 Y-24.152 E41.19763
G1 X0.022 Y-24.895 E41.23599
G1 X0.296 Y-25.614 E41.27438
G1 X0.643 Y-26.3 E41.31273
G1 X1.059 Y-26.947 E41.35111
G1 X1.54 Y-27.547 E41.38947
G1 X1.832 Y-27.857 E41.41072
G1 X2.109 Y-28.134 E41.43027
G1 X2.681 Y-28.648 E41.46863
G1 X3.303 Y-29.101 E41.50702
G1 X3.968 Y-29.487 E41.54538
G1 X4.67 Y-29.802 E41.58377
G1 X5.401 Y-30.042 E41.62215
G1 X6.152 Y-30.205 E41.66049
G1 X6.917 Y-30.289 E41.69889
G1 X7.341 Y-30.301 E41.72005
G1 X12.31 Y-30.302 E41.96796
G1 X13.078 Y-30.262 E42.00632
G1 X13.837 Y-30.143 E42.04465
G1 X14.581 Y-29.945 E42.08306
G1 X15.3 Y-29.672 E42.12143
G1 X15.986 Y-29.325 E42.15979
G1 X16.633 Y-28.909 E42.19816
G1 X17.233 Y-28.428 E42.23653
G1 X17.544 Y-28.135 E42.25784
G1 X17.778 Y-27.901 E42.27435
G1 X18.292 Y-27.329 E42.31272
G1 X18.745 Y-26.707 E42.35111
G1 X19.131 Y-26.042 E42.38947
G1 X19.446 Y-25.34 E42.42786
G1 X19.686 Y-24.609 E42.46624
G1 X19.849 Y-23.858 E42.50458
G1 X19.933 Y-23.093 E42.54298
G1 X19.945 Y-22.668 E42.56419
G1 X19.945 Y-18.494 E42.77243
G1 X19.914 Y-17.897 E42.80226
G1 X75.899 Y-17.897 E45.59536
G1 X75.865 Y-18.502 E45.62559
G1 X75.865 Y-22.624 E45.83124
G1 X75.905 Y-23.392 E45.86961
G1 X76.024 Y-24.152 E45.90798
G1 X76.222 Y-24.895 E45.94635
G1 X76.496 Y-25.614 E45.98473
G1 X76.843 Y-26.3 E46.02309
G1 X77.259 Y-26.947 E46.06146
G1 X77.74 Y-27.547 E46.09983
G1 X78.032 Y-27.857 E46.12108
G1 X78.309 Y-28.134 E46.14062
G1 X78.881 Y-28.648 E46.17899
G1 X79.503 Y-29.101 E46.21738
G1 X80.168 Y-29.487 E46.25574
G1 X80.87 Y-29.802 E46.29412
G1 X81.601 Y-30.042 E46.33251
G1 X82.352 Y-30.205 E46.37085
G1 X83.117 Y-30.289 E46.40924
G1 X83.541 Y-30.301 E46.43041
G1 X88.51 Y-30.302 E46.67831
G1 X89.278 Y-30.262 E46.71668
G1 X90.037 Y-30.143 E46.75501
G1 X90.781 Y-29.945 E46.79342
G1 X91.5 Y-29.672 E46.83179
G1 X92.186 Y-29.325 E46.87014
G1 X92.833 Y-28.909 E46.90852
G1 X93.433 Y-28.428 E46.94688
G1 X93.744 Y-28.135 E46.9682
G1 X93.978 Y-27.901 E46.98471
G1 X94.492 Y-27.329 E47.02308
G1 X94.945 Y-26.707 E47.06146
G1 X95.331 Y-26.042 E47.09983
G1 X95.646 Y-25.34 E47.13821
G1 X95.886 Y-24.609 E47.1766
G1 X96.049 Y-23.858 E47.21494
G1 X96.133 Y-23.093 E47.25333
G1 X96.145 Y-22.668 E47.27455
G1 X96.145 Y-18.485 E47.48324
G1 X96.105 Y-17.717 E47.5216
G1 X95.986 Y-16.957 E47.55998
G1 X95.788 Y-16.214 E47.59834
G1 X95.514 Y-15.495 E47.63673
G1 X95.399 Y-15.267 E47.64947
G1 X95.655 Y-14.691 E47.68092
G1 X95.892 Y-13.96 E47.71926
G1 X96.053 Y-13.207 E47.75767
G1 X96.134 Y-12.442 E47.79605
G1 X96.145 Y-12.042 E47.81602
G1 X96.145 Y-11.49 E47.84356
G1 X96.105 Y-10.722 E47.88192
G1 X95.986 Y-9.962 E47.9203
G1 X95.945 Y-9.808 E47.92825
G1 X95.945 Y-9.274 E47.95489
G1 X95.965 Y-9.202 E47.95862
G1 X96.095 Y-8.444 E47.99699
G1 X96.145 Y-7.582 E48.04007
G1 X96.145 Y-7.017 E48.06826
G1 X96.105 Y-6.249 E48.10662
G1 X95.986 Y-5.489 E48.145
G1 X95.889 Y-5.126 E48.16375
G1 X96.049 Y-4.391 E48.20128
G1 X96.133 Y-3.626 E48.23967
G1 X96.145 Y-3.201 E48.26088
G1 X96.145 Y19.043 E49.37064
G1 X96.105 Y19.811 E49.40901
G1 X95.986 Y20.571 E49.44739
G1 X95.788 Y21.314 E49.48575
G1 X95.514 Y22.033 E49.52414
G1 X95.167 Y22.719 E49.56249
G1 X94.751 Y23.366 E49.60087
G1 X94.27 Y23.966 E49.63923
G1 X93.978 Y24.276 E49.66048
G1 X93.715 Y24.539 E49.67903
G1 X93.143 Y25.053 E49.7174
G1 X92.521 Y25.506 E49.75579
G1 X91.856 Y25.892 E49.79415
G1 X91.154 Y26.207 E49.83254
G1 X90.423 Y26.447 E49.87092
G1 X89.672 Y26.61 E49.90926
G1 X88.907 Y26.694 E49.94766
G1 X88.483 Y26.706 E49.96882
G1 X83.5 Y26.707 E50.21742
G1 X82.732 Y26.667 E50.25579
G1 X81.973 Y26.548 E50.29412
G1 X81.229 Y26.35 E50.33253
G1 X80.51 Y26.077 E50.3709
G1 X79.824 Y25.73 E50.40925
G1 X79.177 Y25.314 E50.44763
G1 X78.577 Y24.833 E50.486
G1 X78.266 Y24.54 E50.50731
G1 X78.032 Y24.306 E50.52382
G1 X77.518 Y23.734 E50.56219
G1 X77.065 Y23.112 E50.60058
G1 X76.679 Y22.447 E50.63894
G1 X76.364 Y21.745 E50.67733
G1 X76.124 Y21.014 E50.71571
