;FLAVOR:Marlin
;TIME:2542
;Filament used: 2.45292m
;Layer height: 0.2
;Generated with Cura_SteamEngine 1.0.0
M190 S35
M104 S235
M109 S235
G28
G1 Z50.00 F400
G92 E0
G1 F200 E3
G92 E0
M132 X Y Z A
M907 X100 Y100 Z50 A100
;LAYER_COUNT:15
;LAYER:0
M107
G0 F3000 X5.2 Y41.148 Z0.3
;TYPE:SKIRT
G1 F1500 X-.181 Y41.944 E0.27138
G1 X-5.482 Y43.038 E0.54142
G1 X-8.085 Y43.69 E0.6753
G1 X-13.361 Y45.255 E0.94985
G1 X-16.931 Y46.493 E1.13837
G1 X-17.47 Y46.639 E1.16623
G1 X-24.762 Y48.072 E1.53699
G1 X-27.291 Y48.702 E1.66701
G1 X-32.556 Y50.257 E1.9409
G1 X-37.701 Y52.097 E2.21351
G1 X-40.156 Y53.096 E2.34574
G1 X-45.142 Y55.373 E2.61921
G1 X-48.287 Y56.984 E2.7955
G1 X-48.807 Y57.206 E2.82371
G1 X-49.353 Y57.352 E2.8519
G1 X-49.914 Y57.419 E2.88009
G1 X-50.48 Y57.407 E2.90833
G1 X-51.155 Y57.285 E2.94256
G1 X-57.3 Y55.622 E3.26016
G1 X-57.834 Y55.436 E3.28837
G1 X-58.336 Y55.177 E3.31655
G1 X-58.797 Y54.849 E3.34478
G1 X-59.333 Y54.315 E3.38253
G1 X-60.622 Y52.762 E3.48322
G1 X-64.269 Y48.687 E3.75605
G1 X-68.122 Y44.843 E4.02758
G1 X-72.166 Y41.242 E4.29773
G1 X-76.43 Y37.856 E4.56938
G1 X-80.853 Y34.735 E4.83945
G1 X-85.485 Y31.845 E5.11183
G1 X-88.06 Y30.385 E5.25951
G1 X-88.531 Y30.072 E5.28772
G1 X-88.953 Y29.696 E5.31592
G1 X-89.318 Y29.264 E5.34414
G1 X-89.591 Y28.835 E5.36951
G1 X-91.805 Y24.816 E5.59843
G1 X-92.042 Y24.303 E5.62662
G1 X-92.254 Y23.498 E5.66815
G1 X-92.929 Y19.14 E5.88817
G1 X-94.029 Y13.809 E6.15973
G1 X-94.683 Y11.2 E6.29392
G1 X-95.414 Y8.598 E6.42876
G1 X-97.119 Y3.391 E6.70211
G1 X-98.055 Y0.897 E6.83501
G1 X-100.19 Y-4.129 E7.10745
G1 X-102.935 Y-9.669 E7.41591
G1 X-103.15 Y-10.192 E7.44412
G1 X-103.288 Y-10.74 E7.47231
G1 X-103.348 Y-11.302 E7.50051
G1 X-103.329 Y-11.867 E7.52871
G1 X-103.215 Y-12.479 E7.55977
G1 X-101.575 Y-18.61 E7.8764
G1 X-101.391 Y-19.144 E7.90458
G1 X-101.133 Y-19.647 E7.93279
G1 X-100.807 Y-20.109 E7.96099
G1 X-100.419 Y-20.52 E7.98919
G1 X-100.05 Y-20.821 E8.01295
G1 X-96.588 Y-23.317 E8.22588
G1 X-92.332 Y-26.709 E8.4974
G1 X-88.285 Y-30.326 E8.76819
G1 X-84.422 Y-34.194 E9.04093
G1 X-82.622 Y-36.158 E9.17384
G1 X-79.111 Y-40.326 E9.44572
G1 X-75.829 Y-44.688 E9.71807
G1 X-75.458 Y-45.114 E9.74625
G1 X-75.031 Y-45.484 E9.77444
G1 X-74.632 Y-45.748 E9.79831
G1 X-70.706 Y-48.013 E10.02443
G1 X-70.197 Y-48.26 E10.05266
G1 X-69.417 Y-48.485 E10.09316
G1 X-64.889 Y-49.301 E10.3227
G1 X-59.609 Y-50.521 E10.59306
G1 X-54.395 Y-52.042 E10.86403
G1 X-49.263 Y-53.859 E11.13564
G1 X-44.267 Y-55.953 E11.4059
G1 X-39.371 Y-58.338 E11.67761
G1 X-35.447 Y-60.503 E11.9012
G1 X-34.934 Y-60.741 E11.92941
G1 X-34.392 Y-60.903 E11.95763
G1 X-33.833 Y-60.988 E11.98584
G1 X-33.268 Y-60.993 E12.01403
G1 X-32.485 Y-60.866 E12.0536
G1 X-27.027 Y-59.413 E12.33539
G1 X-26.839 Y-59.358 E12.34516
G1 X-19.752 Y-57.095 E12.71632
G1 X-14.431 Y-55.731 E12.99037
G1 X-11.859 Y-55.189 E13.12151
G1 X-6.474 Y-54.288 E13.3939
G1 X-1.07 Y-53.694 E13.66513
G1 X4.337 Y-53.407 E13.93527
G1 X9.771 Y-53.428 E14.20637
G1 X15.196 Y-53.755 E14.47752
G1 X20.592 Y-54.388 E14.74857
G1 X25.961 Y-55.329 E15.02051
G1 X28.554 Y-55.898 E15.15296
G1 X31.2 Y-56.556 E15.28899
G1 X36.43 Y-58.098 E15.56102
G1 X41.542 Y-59.924 E15.83184
G1 X46.553 Y-62.041 E16.10323
G1 X51.424 Y-64.431 E16.37392
G1 X56.144 Y-67.089 E16.64418
G1 X60.824 Y-70.08 E16.92127
G1 X61.321 Y-70.35 E16.94949
G1 X61.851 Y-70.547 E16.9777
G1 X62.403 Y-70.667 E17.00588
G1 X62.967 Y-70.709 E17.0341
G1 X63.531 Y-70.671 E17.0623
G1 X64.013 Y-70.573 E17.08684
G1 X73.177 Y-68.118 E17.56016
G1 X73.711 Y-67.933 E17.58835
G1 X74.214 Y-67.675 E17.61656
G1 X74.676 Y-67.349 E17.64477
G1 X75.087 Y-66.961 E17.67296
G1 X75.439 Y-66.518 E17.70119
G1 X75.726 Y-66.031 E17.72939
G1 X75.94 Y-65.508 E17.75759
G1 X76.079 Y-64.96 E17.78579
G1 X76.139 Y-64.398 E17.81399
G1 X76.12 Y-63.833 E17.84219
G1 X76.006 Y-63.221 E17.87325
G1 X58.022 Y4.08 E21.34872
G1 X56.902 Y9.46 E21.62289
G1 X56.479 Y12.042 E21.75342
G1 X55.823 Y17.467 E22.02605
G1 X55.474 Y22.924 E22.29885
G1 X55.418 Y25.587 E22.43174
G1 X55.466 Y30.197 E22.66175
G1 X55.452 Y30.568 E22.68027
G1 X55.367 Y31.598 E22.73183
G1 X55.307 Y32.037 E22.75394
G1 X55.108 Y33.054 E22.80564
G1 X55.005 Y33.463 E22.82668
G1 X54.711 Y34.418 E22.87653
G1 X54.517 Y34.923 E22.90352
G1 X53.838 Y36.388 E22.98408
G1 X53.562 Y36.887 E23.01253
G1 X52.996 Y37.757 E23.06431
G1 X52.734 Y38.114 E23.0864
G1 X52.055 Y38.941 E23.13979
G1 X51.75 Y39.274 E23.16232
G1 X51.006 Y39.996 E23.21404
G1 X50.682 Y40.278 E23.23547
G1 X49.874 Y40.909 E23.28661
G1 X49.494 Y41.171 E23.30964
G1 X48.528 Y41.76 E23.36609
G1 X48.058 Y42.006 E23.39255
G1 X46.811 Y42.555 E23.46053
G1 X46.243 Y42.755 E23.49057
G1 X44.679 Y43.178 E23.5714
G1 X44.109 Y43.289 E23.60038
G1 X43.087 Y43.411 E23.65173
G1 X42.659 Y43.439 E23.67312
G1 X41.614 Y43.451 E23.72526
G1 X41.152 Y43.429 E23.74834
G1 X40.033 Y43.312 E23.80447
G1 X39.659 Y43.255 E23.82334
G1 X32.246 Y41.762 E24.20061
G1 X26.872 Y41.028 E24.47121
G1 X21.47 Y40.598 E24.74157
G1 X16.041 Y40.475 E25.01249
G1 X10.612 Y40.658 E25.2835
G1 X5.2 Y41.148 E25.55461
G0 F3000 X5.157 Y40.75
G1 F1500 X-.232 Y41.547 E25.82639
G1 X-5.586 Y42.652 E26.09913
G1 X-8.205 Y43.308 E26.23383
G1 X-13.473 Y44.871 E26.50798
G1 X-17.062 Y46.115 E26.69748
G1 X-17.547 Y46.246 E26.72255
G1 X-24.834 Y47.678 E27.09305
G1 X-27.387 Y48.314 E27.22431
G1 X-32.683 Y49.878 E27.49981
G1 X-37.838 Y51.722 E27.77295
G1 X-40.312 Y52.729 E27.90622
G1 X-45.329 Y55.02 E28.18138
G1 X-48.469 Y56.628 E28.35738
G1 X-48.963 Y56.836 E28.38412
G1 X-49.483 Y56.969 E28.4109
G1 X-50.017 Y57.023 E28.43768
G1 X-50.552 Y56.997 E28.4644
G1 X-51.05 Y56.899 E28.48972
G1 X-57.195 Y55.236 E28.80732
G1 X-57.701 Y55.058 E28.83408
G1 X-58.175 Y54.806 E28.86087
G1 X-58.606 Y54.487 E28.88762
G1 X-59.026 Y54.06 E28.9175
G1 X-60.337 Y52.48 E29.01993
G1 X-63.979 Y48.411 E29.29237
G1 X-67.846 Y44.553 E29.56489
G1 X-71.915 Y40.929 E29.83674
G1 X-76.176 Y37.546 E30.10817
G1 X-80.637 Y34.398 E30.38057
G1 X-85.276 Y31.504 E30.65335
G1 X-87.863 Y30.037 E30.80173
G1 X-88.308 Y29.738 E30.82847
G1 X-88.704 Y29.377 E30.85521
G1 X-89.043 Y28.96 E30.88202
G1 X-89.24 Y28.642 E30.90068
G1 X-91.454 Y24.623 E31.1296
G1 X-91.677 Y24.135 E31.15637
G1 X-91.859 Y23.437 E31.19236
G1 X-92.533 Y19.081 E31.41226
G1 X-93.644 Y13.701 E31.68634
G1 X-94.296 Y11.1 E31.82012
G1 X-95.03 Y8.484 E31.95567
G1 X-96.739 Y3.267 E32.22956
G1 X-97.69 Y0.733 E32.36459
G1 X-99.821 Y-4.285 E32.63658
G1 X-102.577 Y-9.846 E32.94622
G1 X-102.778 Y-10.343 E32.97296
G1 X-102.904 Y-10.865 E32.99975
G1 X-102.951 Y-11.399 E33.0265
G1 X-102.918 Y-11.934 E33.05324
G1 X-102.829 Y-12.375 E33.07569
G1 X-101.189 Y-18.506 E33.39232
G1 X-101.012 Y-19.013 E33.41911
G1 X-100.762 Y-19.487 E33.44584
G1 X-100.444 Y-19.919 E33.47261
G1 X-100.066 Y-20.299 E33.49935
G1 X-99.816 Y-20.496 E33.51523
G1 X-96.355 Y-22.991 E33.72809
G1 X-92.072 Y-26.405 E34.00134
G1 X-88.008 Y-30.037 E34.27327
G1 X-84.138 Y-33.912 E34.54649
G1 X-82.316 Y-35.9 E34.68103
G1 X-78.803 Y-40.07 E34.95306
G1 X-75.51 Y-44.447 E35.22633
G1 X-75.156 Y-44.851 E35.25312
G1 X-74.747 Y-45.197 E35.27985
G1 X-74.432 Y-45.401 E35.29858
G1 X-70.506 Y-47.666 E35.5247
G1 X-70.023 Y-47.899 E35.55146
G1 X-69.346 Y-48.091 E35.58657
G1 X-64.83 Y-48.905 E35.8155
G1 X-59.496 Y-50.137 E36.08862
G1 X-54.276 Y-51.66 E36.35991
G1 X-49.111 Y-53.489 E36.63327
G1 X-44.101 Y-55.588 E36.90427
G1 X-39.188 Y-57.981 E37.17691
G1 X-35.253 Y-60.153 E37.40115
G1 X-34.766 Y-60.376 E37.42787
G1 X-34.25 Y-60.525 E37.45466
G1 X-33.719 Y-60.595 E37.48139
G1 X-33.183 Y-60.586 E37.50813
G1 X-32.588 Y-60.48 E37.53828
G1 X-27.13 Y-59.027 E37.82007
G1 X-26.961 Y-58.977 E37.82886
G1 X-19.857 Y-56.709 E38.2009
G1 X-14.538 Y-55.345 E38.47486
G1 X-11.938 Y-54.797 E38.60742
G1 X-6.512 Y-53.889 E38.88189
G1 X-1.118 Y-53.296 E39.15262
G1 X4.335 Y-53.007 E39.42505
G1 X9.796 Y-53.028 E39.6975
G1 X15.232 Y-53.356 E39.9692
G1 X20.637 Y-53.99 E40.2407
G1 X26.046 Y-54.938 E40.51467
G1 X28.665 Y-55.512 E40.64844
G1 X31.291 Y-56.166 E40.78345
G1 X36.557 Y-57.718 E41.05735
G1 X41.69 Y-59.552 E41.32929
G1 X46.707 Y-61.671 E41.601
G1 X51.611 Y-64.078 E41.87354
G1 X56.348 Y-66.745 E42.14475
G1 X61.039 Y-69.743 E42.4225
G1 X61.512 Y-69.997 E42.44929
G1 X62.016 Y-70.178 E42.476
G1 X62.542 Y-70.283 E42.50276
G1 X63.078 Y-70.308 E42.52953
G1 X63.612 Y-70.253 E42.55631
G1 X63.91 Y-70.186 E42.57155
G1 X73.074 Y-67.731 E43.04487
G1 X73.58 Y-67.554 E43.07161
G1 X74.054 Y-67.304 E43.09835
G1 X74.486 Y-66.986 E43.12511
G1 X74.866 Y-66.608 E43.15185
G1 X75.185 Y-66.177 E43.1786
G1 X75.437 Y-65.704 E43.20534
G1 X75.616 Y-65.198 E43.23212
G1 X75.718 Y-64.671 E43.2589
G1 X75.74 Y-64.136 E43.28561
G1 X75.683 Y-63.602 E43.31241
G1 X75.62 Y-63.325 E43.32658
G1 X57.63 Y3.997 E46.80314
G1 X56.513 Y9.365 E47.07669
G1 X56.081 Y11.999 E47.20985
G1 X55.425 Y17.428 E47.48268
G1 X55.074 Y22.914 E47.75693
G1 X55.017 Y25.583 E47.89012
G1 X55.066 Y30.201 E48.12053
G1 X55.054 Y30.535 E48.1372
G1 X54.969 Y31.565 E48.18876
G1 X54.914 Y31.96 E48.20866
G1 X54.715 Y32.977 E48.26036
G1 X54.623 Y33.345 E48.27928
G1 X54.329 Y34.3 E48.32914
G1 X54.154 Y34.755 E48.35346
G1 X53.475 Y36.22 E48.43401
G1 X53.227 Y36.669 E48.45961
G1 X52.661 Y37.539 E48.51139
G1 X52.425 Y37.86 E48.53126
G1 X51.746 Y38.687 E48.58465
G1 X51.471 Y38.986 E48.60492
G1 X50.727 Y39.708 E48.65664
G1 X50.436 Y39.962 E48.67591
G1 X49.628 Y40.593 E48.72706
G1 X49.286 Y40.83 E48.74781
G1 X48.32 Y41.419 E48.80426
G1 X47.897 Y41.64 E48.82807
G1 X46.65 Y42.189 E48.89605
G1 X46.139 Y42.369 E48.92308
G1 X44.575 Y42.792 E49.00391
G1 X44.062 Y42.892 E49.02998
G1 X43.04 Y43.014 E49.08133
G1 X42.654 Y43.039 E49.10063
G1 X41.609 Y43.051 E49.15277
G1 X41.194 Y43.031 E49.1735
G1 X40.075 Y42.914 E49.22963
G1 X39.738 Y42.863 E49.24663
G1 X32.314 Y41.368 E49.62445
G1 X26.924 Y40.631 E49.89586
G1 X21.476 Y40.197 E50.16853
G1 X16.037 Y40.074 E50.43995
G1 X10.58 Y40.259 E50.71236
G1 X5.157 Y40.75 E50.98402
G0 F3000 X5.115 Y40.352
G1 F1500 X-.313 Y41.155 E51.25777
G1 X-5.677 Y42.262 E51.53102
G1 X-8.297 Y42.918 E51.66577
G1 X-13.605 Y44.493 E51.942
G1 X-17.193 Y45.737 E52.13146
G1 X-17.624 Y45.854 E52.15374
G1 X-24.93 Y47.29 E52.52521
G1 X-27.506 Y47.932 E52.65766
G1 X-32.8 Y49.495 E52.93305
G1 X-37.99 Y51.352 E53.20805
G1 X-40.469 Y52.36 E53.34156
G1 X-45.49 Y54.654 E53.61697
G1 X-48.651 Y56.272 E53.79413
G1 X-49.118 Y56.466 E53.81936
G1 X-49.61 Y56.585 E53.84461
G1 X-50.114 Y56.624 E53.86983
G1 X-50.618 Y56.583 E53.89506
G1 X-50.946 Y56.513 E53.91179
G1 X-57.091 Y54.85 E54.2294
G1 X-57.567 Y54.68 E54.25461
G1 X-58.01 Y54.437 E54.27982
G1 X-58.41 Y54.127 E54.30507
G1 X-58.718 Y53.804 E54.32734
G1 X-60.027 Y52.227 E54.42958
G1 X-63.69 Y48.134 E54.70362
G1 X-67.562 Y44.271 E54.97649
G1 X-71.656 Y40.624 E55.25003
G1 X-75.939 Y37.224 E55.52285
G1 X-80.42 Y34.062 E55.79647
G1 X-85.082 Y31.153 E56.07062
G1 X-87.665 Y29.689 E56.21875
G1 X-88.084 Y29.405 E56.244
G1 X-88.453 Y29.06 E56.2692
G1 X-88.89 Y28.449 E56.30668
G1 X-91.104 Y24.43 E56.5356
G1 X-91.312 Y23.969 E56.56083
G1 X-91.463 Y23.376 E56.59136
G1 X-92.138 Y19.017 E56.81142
G1 X-93.253 Y13.614 E57.08666
G1 X-93.906 Y11.009 E57.22065
G1 X-94.649 Y8.364 E57.35771
G1 X-96.366 Y3.121 E57.63296
G1 X-97.318 Y0.584 E57.76815
G1 X-99.458 Y-4.454 E58.04123
G1 X-102.218 Y-10.024 E58.35136
G1 X-102.406 Y-10.493 E58.37657
G1 X-102.518 Y-10.986 E58.40179
G1 X-102.551 Y-11.491 E58.42704
G1 X-102.503 Y-11.994 E58.45225
G1 X-102.442 Y-12.272 E58.46645
G1 X-100.802 Y-18.403 E58.78308
G1 X-100.633 Y-18.879 E58.80828
G1 X-100.392 Y-19.323 E58.83348
G1 X-100.083 Y-19.724 E58.85874
G1 X-99.582 Y-20.172 E58.89227
G1 X-96.098 Y-22.684 E59.10656
G1 X-91.82 Y-26.094 E59.3795
G1 X-87.732 Y-29.747 E59.65301
G1 X-83.843 Y-33.641 E59.92758
G1 X-82.03 Y-35.618 E60.06141
G1 X-78.486 Y-39.826 E60.33588
G1 X-75.19 Y-44.207 E60.6094
G1 X-74.855 Y-44.586 E60.63463
G1 X-74.465 Y-44.907 E60.65983
G1 X-74.232 Y-45.055 E60.67361
G1 X-70.306 Y-47.32 E60.89973
G1 X-69.85 Y-47.537 E60.92493
G1 X-69.275 Y-47.697 E60.9547
G1 X-64.751 Y-48.512 E61.18404
G1 X-59.399 Y-49.749 E61.45809
G1 X-54.136 Y-51.284 E61.7316
G1 X-48.987 Y-53.107 E62.00411
G1 X-43.937 Y-55.224 E62.2773
G1 X-39.006 Y-57.625 E62.55092
G1 X-35.06 Y-59.803 E62.77579
G1 X-34.599 Y-60.011 E62.80102
G1 X-34.112 Y-60.145 E62.82622
G1 X-33.609 Y-60.2 E62.85146
G1 X-33.104 Y-60.175 E62.87669
G1 X-32.691 Y-60.093 E62.8977
G1 X-27.233 Y-58.64 E63.17948
G1 X-27.083 Y-58.596 E63.18728
G1 X-19.977 Y-56.327 E63.55943
G1 X-14.606 Y-54.95 E63.83606
G1 X-12.009 Y-54.403 E63.96847
G1 X-6.59 Y-53.496 E64.24258
G1 X-1.146 Y-52.897 E64.51583
G1 X4.334 Y-52.607 E64.78961
G1 X9.804 Y-52.628 E65.06251
G1 X15.266 Y-52.958 E65.3355
G1 X20.7 Y-53.595 E65.60846
G1 X26.109 Y-54.543 E65.88243
G1 X28.768 Y-55.126 E66.01824
G1 X31.409 Y-55.783 E66.15402
G1 X36.678 Y-57.336 E66.42807
G1 X41.828 Y-59.176 E66.70091
G1 X46.875 Y-61.308 E66.97425
G1 X51.805 Y-63.727 E67.24822
G1 X56.567 Y-66.409 E67.52089
G1 X61.255 Y-69.405 E67.79846
G1 X61.701 Y-69.643 E67.82368
G1 X62.179 Y-69.808 E67.84891
G1 X62.677 Y-69.895 E67.87413
G1 X63.183 Y-69.902 E67.89938
G1 X63.806 Y-69.8 E67.93087
G1 X72.97 Y-67.345 E68.40419
G1 X73.447 Y-67.176 E68.42943
G1 X73.89 Y-66.934 E68.45462
G1 X74.291 Y-66.625 E68.47987
G1 X74.637 Y-66.257 E68.50507
G1 X74.922 Y-65.839 E68.53031
G1 X75.137 Y-65.382 E68.55551
G1 X75.277 Y-64.896 E68.58074
G1 X75.339 Y-64.394 E68.60598
G1 X75.321 Y-63.889 E68.63119
G1 X75.234 Y-63.428 E68.6546
G1 X57.242 Y3.904 E72.13166
G1 X56.117 Y9.307 E72.407
G1 X55.686 Y11.937 E72.53996
G1 X55.025 Y17.408 E72.8149
G1 X54.675 Y22.879 E73.0884
G1 X54.617 Y25.576 E73.22299
G1 X54.666 Y30.205 E73.45394
G1 X54.655 Y30.502 E73.46877
G1 X54.57 Y31.532 E73.52033
G1 X54.521 Y31.884 E73.53806
G1 X54.322 Y32.901 E73.58976
G1 X54.24 Y33.228 E73.60658
G1 X53.946 Y34.183 E73.65644
G1 X53.791 Y34.587 E73.67802
G1 X53.112 Y36.052 E73.75858
G1 X52.891 Y36.451 E73.78134
G1 X52.325 Y37.321 E73.83312
G1 X52.116 Y37.607 E73.85079
G1 X51.437 Y38.434 E73.90418
G1 X51.193 Y38.699 E73.92215
G1 X50.449 Y39.421 E73.97387
G1 X50.19 Y39.647 E73.99102
G1 X49.382 Y40.278 E74.04217
G1 X49.078 Y40.488 E74.0606
G1 X48.112 Y41.077 E74.11705
G1 X47.735 Y41.274 E74.13827
G1 X46.488 Y41.823 E74.20624
G1 X46.034 Y41.983 E74.23026
G1 X44.47 Y42.406 E74.31109
G1 X44.014 Y42.494 E74.33426
G1 X42.992 Y42.616 E74.38561
G1 X42.65 Y42.639 E74.40271
G1 X41.605 Y42.651 E74.45485
G1 X41.235 Y42.634 E74.47333
G1 X40.116 Y42.517 E74.52946
G1 X39.817 Y42.471 E74.54455
G1 X32.384 Y40.974 E74.92283
G1 X26.956 Y40.232 E75.19616
G1 X21.5 Y39.798 E75.46922
G1 X16.032 Y39.674 E75.74209
G1 X10.564 Y39.859 E76.01504
G1 X5.115 Y40.352 E76.288
G1 F1500 E74.288
G0 F3000 X-13.716 Y40.59
G0 X-14.57 Y40.36
G0 X-14.647 Y40.34
G0 X-14.551 Y40.365
;TYPE:WALL-OUTER
G1 F1500 E76.37115
G1 X-17.991 Y42.351 E76.56932
G1 X-18.164 Y42.451 E76.57929
G1 X-18.264 Y42.278 E76.58573
G1 X-37.161 Y9.547 E78.4713
G1 X-37.994 Y9.996 E78.51851
G1 X-38.773 Y10.357 E78.56135
G1 X-50.249 Y53.19 E80.77366
G1 X-55.804 Y51.701 E81.06059
G1 X-55.997 Y51.65 E81.07055
G1 X-55.946 Y51.457 E81.07698
G1 X-45.229 Y11.464 E83.14263
G1 X-45.174 Y11.257 E83.15332
G1 X-45.385 Y11.218 E83.1601
G1 X-46.572 Y10.995 E83.22035
G1 X-47.708 Y10.67 E83.2793
G1 X-48.811 Y10.237 E83.33842
G1 X-49.882 Y9.698 E83.39824
G1 X-50.883 Y9.068 E83.45724
G1 X-51.837 Y8.334 E83.5173
G1 X-52.815 Y7.422 E83.58401
G1 X-85.862 Y26.523 E85.48832
G1 X-85.863 Y26.524 E85.48839
G1 X-86.038 Y26.625 E85.49847
G1 X-86.135 Y26.447 E85.50497
G1 X-88.041 Y22.964 E85.70305
